X:55
T:Slängpolska efter Magnus Justus Trolle
T:(SmM I:55)
R:Slängpolska
O:Jät, Småland
B:Småländsk Musiktradition
S:Efter Magnus Justus Trolle
S:Efter Thure Trolle
N:Medelad av Thure Trolle. 1908.
N:FMK:s brevsamling
Z:Till abc Jonas Brunskog
M:3/4
L:1/8
K:A
eg a2 a2|ag bg e2|eg bg dd|f2 g2 z2:|
|:e2 e2 c2|Ac B4|G2 AB cd|e2 c2 Ac|BG A2 A2:|

